!!!OTL@@DE: Abschied vom Dirndel
!!!ONB: Neueres Volkslied
!!!OMD: Gem&auml;ssigt und innig
!!!ONB: Schweizerisch
!!!LDT: 1839
!!!OCL: Erk, Ludwig
!!!GCO: Deutscher Liederschatz, Band 1
**kern	**kern	**kern
*staff3	*staff2	*staff1
*Ipiano	*Ipiano	*Ivox
*>[A,A,B]	*>[A,A,B]	*>[A,A,B]
*>norep[A,B]	*>norep[A,B]	*>norep[A,B]
*>A	*>A	*>A
*clefF4	*clefG2	*clefG2
*k[f#]	*k[f#]	*k[f#]
*G:	*G:	*G:
*M3/4	*M3/4	*M3/4
*MM108	*MM108	*MM108
8r	(8d/L	8d/
4r	8B/ 8g/	8g/
.	8d/) 8a/J	8a/
=1	=1	=1
*^	*	*
8GG\L	4.GG/	(4.g/ 4.b/	4.b\
8D\	.	.	.
*v	*v	*	*
8G\ 8B\	.	.
8D\	8f#/L	8f#/
8G\ 8B\	8a/	8a/
8D\J	8g/J)	8g/
=2	=2	=2
8CC\ 8C\L	(4f#/	4f#/
8E\	.	.
8A\ 8c\	8e/)	8e/
8E\	8r	8r
8A\ 8c\	8a/L	8a/
8E\J	8b/J	8b\
=3	=3	=3
*	*^	*
8DD\L	(4.dd/	2f#\	4.dd\
8D\	.	.	.
8A\ 8c\	.	.	.
8D\	8cc/	.	8cc\
*	*v	*v	*
8A\ 8c\	8e/L	8e/
8D\J	8d/ 8f#/J)	8f#/
=4	=4	=4
4G\ 4B\	4d/ 4g/	4g/
8GG/	8r	8r
=:|!	=:|!	=:|!
*>B	*>B	*>B
8r	8r	8r
4r	8g/L	8g/L
.	8a/J	8a/J
=5	=5	=5
4GG/	(8.b/L	8.b\L
.	16g/k	16g\Jk
4D\ 4G\ 4B\	8.b/	8.b\L
.	16g/Jk	16g\Jk
4D\ 4G\ 4B\	8.ee\L	8.ee\L
.	16dd\Jk)	16dd\Jk
=6	=6	=6
4DD/	(4dd\	4dd\
4D\ 4F#\ 4A\	8cc/L	8cc/L
.	8f#/J	8f#/J
4D\ 4F#\ 4c\	8a/)	8a/
.	8r	8r
=7	=7	=7
4DD/	(8.cc\L	8.cc\L
.	16a\k	16a\Jk
4D\ 4F#\ 4A\	8.cc\	8.cc\L
.	16a\Jk	16a\Jk
4D\ 4F#\ 4c\	8.ff#\L	8.ff#\L
.	16ee\Jk)	16ee\Jk
=8	=8	=8
4GG/	(4ee\	4ee\
4D\ 4G\ 4B\	8dd\L	8dd\L
.	8g\J	8g\J
4D\ 4G\ 4B\	8b\)	8b\
.	8r	8r
=9	=9	=9
4BB/	(8.dd\L	8.dd\L
.	16b\Jk	16b\Jk
4G\ 4B\ 4d\	4.gg\	4.gg\
4G\ 4B\ 4d\	.	.
.	8ff#\)	8ff#\
=10	=10	=10
4C/	(4ff#\	4ff#\
4E\ 4A\ 4c\	4ee\)	4ee\
4E\ 4A\ 4c\	(8.a/L	8a\L
.	.	8b\J
.	&(16b/Jk&))	.
=11	=11	=11
*^	*	*
4r	2.D\	(4dd\	4dd\
4F#/ 4A/ 4d/	.	8cc/L	8cc/L
.	.	8f#/J	8f#/J
4A/ 4c/ 4d/	.	(8cc/L)	8cc/L
.	.	8f#/J)	8f#/J
*v	*v	*	*
=12	=12	=12
4G\ 4B\ 4d\	4g/	4g/
4GG/	4r	4r
4r	8.b/L	4r
.	16a/Jk	.
=13	=13	=13
4AA/	(8.a/L	8.a\L
.	16b/k	16b\Jk
4A\ 4c#\ 4g\	8.a/	8.a/L
.	16b/k	16b/Jk
4A\ 4c#\ 4g\	8.a/	8.a\L
.	16b/Jk)	16b\Jk
=14	=14	=14
4D\	(12a\L	(12a\L
.	12dd\	12dd\
.	12ff#\J)	12ff#\J)
4A\ 4d\ 4f#\	2aa\	2aa\
4A\ 4d\ 4f#\	.	.
=15	=15	=15
4AA/	(8aa\L	(8aa\L
.	16gg\L	16gg\L
.	16a\JJ	16a\JJ
4A\ 4c#\ 4e\	2ee\)	2ee\)
4A\ 4c#\ 4e\	.	.
=16	=16	=16
4D\	(8gg\L	(8gg\L
.	16ff#\L	16ff#\L
.	16a\JJ	16a\JJ
4A\ 4d\ 4f#\	2dd\)	2dd\)
4A\ 4d\ 4f#\	.	.
=17	=17	=17
4DD/ 4D/	8.a\ (8.ccn\L	8.cc\L
.	16dd\k	16dd\Jk
4F#\ 4A\ 4d\	8.a\ 8.cc\	8.cc\L
.	16dd\k	16dd\Jk
4F#\ 4A\ 4d\	8.a\ 8.cc\	8.cc\L
.	16dd\Jk)	16dd\Jk
=18	=18	=18
4GG/	(12b\L	12b\L
.	12dd\	12dd\
.	12gg\J	12gg\J
4B\ 4d\	4.bb\)	4.bb\
4G\ 4B\ 4d\	.	.
.	8dd\	8dd\
=19	=19	=19
4DD/	(8bb\L	(8bb\L
.	16aa\L	16aa\L
.	16dd\JJ	16dd\JJ
4D\ 4F#\ 4c\	4.aa\	4.aa\
4D\ 4F#\ 4c\	.	.
.	8bb\)	8bb\)
=20	=20	=20
4G\ 4B\	4gg\	4gg\
8GG/	8r	8r
==	==	==
*-	*-	*-
!!!ENC: Craig Stuart Sapp
!!!END: 2004/06/06/
!!!EFL: 107/651
